source/svgs/bowtie/uE928-chart-stacked-bar.svg

<svg xmlns="http://www.w3.org/2000/svg" viewBox="0 0 448 448" enable-background="new 0 0 448 448"><path d="M0 0v448h448v-448h-448zm128 96h96v64h-96v-64zm32 256h-128v-64h128v64zm256 64h-384v-32h352v-128h-352v-64h224v-128h-224v-32h384v384z"/></svg>

<svg xmlns="http://www.w3.org/2000/svg" viewBox="0 0 448 448"><path d="M0 0v448h448V0H0zm128 96h96v64h-96V96zm32 256H32v-64h128v64zm256 64H32v-32h352V256H32v-64h224V64H32V32h384v384z"/></svg>
